X:1
T:Do Your Best
T:Do Your Best
T:Rufus Henry Cornelius
T:Johnson Oatman, 1904
T:Public Domain Courtesy of the Cyber Hymnal™
T:Public Domain Courtesy of the Cyber Hymnal™
C:Rufus Henry Cornelius
Z:Public Domain
Z:Courtesy of the Cyber Hymnal™
%%score ( 1 2 ) ( 3 4 )
L:1/8
Q:1/4=98
M:4/4
K:Eb
V:1 treble 
V:2 treble 
V:3 bass 
V:4 bass 
V:1
 EG | B4- [EB][EB][Ec][EB] | [EB]([EG-] G4) x2 | e4- [Ge][EB][Ec][Ee] | B6 x2 | %5
w: 1.~There’s a|voice that calls for reap-|* ers, *|Those hear are sure- ly|blest;|
w: 2.~Ma- ny|souls now sit in dark-|* ness, *|Ma- hearts are sore dis-|tressed;|
w: 3.~Like a|dove per- haps some loved|* one *|Now flown from the home|rest;|
w: 4.~When the|shades of ev- ening ga-|* ther, *|God call you home to|rest;|
 e4- [Ge][Ec][EB][EG] | [Ec] ([Ec-] c4) x2 | B4- [FB][Ad][Ac][AB] | [Ge]6 ||"^Refrain" z2 | %10
w: ’Tis voice of Je- sus|call- ing, *|Work Him and do your|best.||
w: Bring them a ray of|sun- shine, *|Work Christ and do your|best.||
w: Where chance some heart is|break- ing, *|Go day and do your|best.||
w: But day He needs your|ser- vice, *|Work Him and do your|best.||
 [EG]2 [EG]2 [EG][EB][DA][EG] | [EA] ([EG][FB][FB] [FB]2) z2 | [EB]2 [EB]2 [Ee][Ee][FB][EB] | %13
w: |||
w: Do your best each day for|Je- sus, * * *|By and by you will have|
w: |||
w: |||
 ([DB][DB][DB][EB] [FB]2) z2 | [FB]2 [FB]2 [FB][DB][EB][FA] | [EG] ([EG][FA][EG] [DF][DF]) z2 | %16
w: |||
w: rest; * * * *|But to- day He calls for|reap- ers, * * * *|
w: |||
w: |||
 [DF]2 [EG]2 [DA][DA][FA][FA] | [EG]6 |] %18
w: ||
w: Work for Him and do your|best.|
w: ||
w: ||
V:2
 x2 | E2 E2 x4 | x2 (EEEEGB) | G2 G2 x4 | (EEGF E2 BB) | G2 G2 x4 | x2 (EE AAAc) | G2 G2 x4 | x6 || %9
 x2 | x8 | x8 | x8 | x8 | x8 | x8 | x8 | x6 |] %18
V:3
 z2 | [E,G,]2 [E,G,]2 [E,G,][E,G,][F,B,][E,G,] | [E,G,] ([E,B,][E,B,][E,B,][E,B,][E,B,]) z2 | %3
w: |~ ~ ~ ~ ~ ~|~ ~ * * * *|
 [E,B,]2 [E,=B,]2 [C,C][G,,_B,][A,,A,][C,A,] | ([E,G,][E,G,][B,,B,][B,,B,] [E,G,]2) z2 | %5
w: ~ ~ ~ ~ ~ ~|~ * * * *|
 [E,B,]2 [E,B,]2 [E,B,][E,A,][E,G,][E,B,] | A,A,A, ([A,C][A,E][A,E]) z2 | %7
w: ~ ~ ~ ~ ~ ~|~ ~ ~ ~ * *|
 [B,E]2 [B,E]2 [B,D][B,F][B,E][B,D] | [E,E]6 || (3(B,,C,)D, | (B,2 B,2 [E,B,])[G,B,][F,B,][E,B,] | %11
w: * ~ ~ ~ ~ ~|Do|your * best|each * * day for Je-|
 [C,E]([B,,-E] DD D2) E,F, | (B,2 B,2 [G,B,])[C,C][D,A,][E,G,] | (B,B,B,C D2) F,G, | %14
w: sus, By * * * and by|you * * will have rest,|But * * * * to- *|
 (D2 D2 [A,D])[F,B,][G,B,][A,C] | B, (B,DEB,B,)G,E, | [F,B,]2 [B,,B,]2 (B,B,) (B,B,) | [E,B,]6 |] %18
w: day * * He calls for|reap- ers, * * * * Work for|Him and do * your *|best.|
V:4
 x2 | x8 | x8 | x8 | x8 | x8 | A, A, A, x5 | x8 | x6 || x2 | E,4- x4 | x2 B,,4 x2 | G,4- x4 | %13
 F,6 x2 | A,4- x4 | B,B,- B,4 x2 | x4 C,2 D,2 | x6 |] %18

